X:1
T:Memoria, 88.84
T:Memoria, 88.84
T:Samuel Sebastian Wesley (1810-1876)
T:Public Domain Courtesy of the Cyber Hymnal™
C:Samuel Sebastian Wesley (1810-1876)
Z:Public Domain
Z:Courtesy of the Cyber Hymnal™
%%score ( 1 2 ) ( 3 4 )
L:1/8
M:3/4
K:Eb
V:1 treble 
V:2 treble 
V:3 bass 
V:4 bass 
V:1
 [EG]2 | [FB]4 [EG]2 | [EG]4 [DF]2 | E4 [FA]2 | ([EG]2 [DF]2) [DF]2 | [EG]4 [E=A]2 | [DB]4 [Gc]2 | %7
 [Fd]4 [Ec]2 | [DB]4 [EB]2 | [Ec]4 [Ad]2 | e4 [EG]2 | [EA]4 [EB]2 | [Ec]4 [Ec]2 | E6 | [DF]6 | %15
 E4 |] %16
V:2
 x2 | x6 | x6 | E4 x2 | x6 | x6 | x6 | x6 | x6 | x6 | (A2 G2) x2 | x6 | x6 | E6 | x6 | E4 |] %16
V:3
 [E,B,]2 | [D,B,]4 [E,B,]2 | [B,,B,]4 [B,,A,]2 | G,4 [A,,C]2 | [B,,B,]4 [B,,B,]2 | [E,B,]4 [C,C]2 | %6
 B,4 [=E,B,]2 | [F,B,]4 [F,,=A,]2 | [B,,B,]4 [G,B,]2 | A,4 [F,A,]2 | [E,B,]4 [E,B,]2 | %11
 [C,E]4 [G,,_D]2 | [A,,C]4 [A,,F,]2 | [B,,G,]6 | [B,,A,]6 | [E,G,]4 |] %16
V:4
 x2 | x6 | x6 | (C,2 B,,2) x2 | x6 | x6 | (G,2 F,2) x2 | x6 | x6 | (A,3 G,) x2 | x6 | x6 | x6 | %13
 x6 | x6 | x4 |] %16

